static/assets/img/icons/theme/shopping/dollar.svg

<svg height="24" viewBox="0 0 24 24" width="24" xmlns="http://www.w3.org/2000/svg"><g fill="none" fill-rule="evenodd"><path d="m0 0h24v24h-24z" opacity="0"/><g fill="#000"><rect height="4" opacity=".3" rx="1" width="2" x="11.5" y="2"/><rect height="5" opacity=".3" rx="1" width="2" x="11.5" y="16"/><path d="m15.493 8.044c-.2786681-.35466844-.6428311-.63649896-1.0925-.8455-.4496689-.20900105-.8834979-.3135-1.3015-.3135-.2153344 0-.4338322.01899981-.6555.057s-.4211658.11083279-.5985.2185c-.1773342.1076672-.3261661.24699914-.4465.418-.1203339.17100085-.1805.38949867-.1805.6555 0 .22800114.0474995.41799924.1425.57s.2343324.28499943.418.399.4021654.21849952.6555.3135c.2533346.09500047.5383317.19316616.855.2945.4560023.15200076.9309975.3198324 1.425.5035s.9436646.4274985 1.349.7315.7409987.6808311 1.007 1.1305.399 1.0101633.399 1.6815c0 .7726705-.1424986 1.4408305-.4275 2.0045s-.6681643 1.0291648-1.1495 1.3965-1.0323302.6396658-1.653.817-1.26033.266-1.919.266c-.9626715 0-1.8936622-.1678317-2.793-.5035-.89933783-.3356683-1.64666369-.8138302-2.242-1.4345l2.128-2.166c.32933498.4053354.763164.7441653 1.3015 1.0165s1.0734973.4085 1.6055.4085c.2406679 0 .4749989-.0253331.703-.076s.4274991-.1329994.5985-.247.3071662-.2659991.4085-.456c.1013338-.190001.152-.4179987.152-.684 0-.2533346-.0633327-.4686658-.19-.646s-.3071655-.3388326-.5415-.4845-.5256649-.2786661-.874-.399-.7441645-.250166-1.1875-.3895c-.4306688-.139334-.8518313-.3039991-1.2635-.494-.41166873-.190001-.77899839-.4338318-1.102-.7315-.32300162-.2976682-.58266569-.6586645-.779-1.083-.19633432-.42433546-.2945-.94049696-.2945-1.5485 0-.74733707.15199848-1.38699734.456-1.919s.70299753-.96899829 1.197-1.311c.4940025-.34200171 1.0513302-.59216588 1.672-.7505.6206698-.15833413 1.2476635-.2375 1.881-.2375.7600038 0 1.5358294.13933194 2.3275.418s1.4851637.69033061 2.0805 1.235z"/></g></g></svg>

<svg width="24px" height="24px" viewBox="0 0 24 24" version="1.1" xmlns="http://www.w3.org/2000/svg" xmlns:xlink="http://www.w3.org/1999/xlink">
    <title>Icon For Dollar</title>
    <g stroke="none" stroke-width="1" fill="none" fill-rule="evenodd">
        <rect opacity="0" x="0" y="0" width="24" height="24"></rect>
        <rect fill="#000000" opacity="0.3" x="11.5" y="2" width="2" height="4" rx="1"></rect>
        <rect fill="#000000" opacity="0.3" x="11.5" y="16" width="2" height="5" rx="1"></rect>
        <path d="M15.493,8.044 C15.2143319,7.68933156 14.8501689,7.40750104 14.4005,7.1985 C13.9508311,6.98949895 13.5170021,6.885 13.099,6.885 C12.8836656,6.885 12.6651678,6.90399981 12.4435,6.942 C12.2218322,6.98000019 12.0223342,7.05283279 11.845,7.1605 C11.6676658,7.2681672 11.5188339,7.40749914 11.3985,7.5785 C11.2781661,7.74950085 11.218,7.96799867 11.218,8.234 C11.218,8.46200114 11.2654995,8.65199924 11.3605,8.804 C11.4555005,8.95600076 11.5948324,9.08899943 11.7785,9.203 C11.9621676,9.31700057 12.1806654,9.42149952 12.434,9.5165 C12.6873346,9.61150047 12.9723317,9.70966616 13.289,9.811 C13.7450023,9.96300076 14.2199975,10.1308324 14.714,10.3145 C15.2080025,10.4981676 15.6576646,10.7419985 16.063,11.046 C16.4683354,11.3500015 16.8039987,11.7268311 17.07,12.1765 C17.3360013,12.6261689 17.469,13.1866633 17.469,13.858 C17.469,14.6306705 17.3265014,15.2988305 17.0415,15.8625 C16.7564986,16.4261695 16.3733357,16.8916648 15.892,17.259 C15.4106643,17.6263352 14.8596698,17.8986658 14.239,18.076 C13.6183302,18.2533342 12.97867,18.342 12.32,18.342 C11.3573285,18.342 10.4263378,18.1741683 9.527,17.8385 C8.62766217,17.5028317 7.88033631,17.0246698 7.285,16.404 L9.413,14.238 C9.74233498,14.6433354 10.176164,14.9821653 10.7145,15.2545 C11.252836,15.5268347 11.7879973,15.663 12.32,15.663 C12.5606679,15.663 12.7949989,15.6376669 13.023,15.587 C13.2510011,15.5363331 13.4504991,15.4540006 13.6215,15.34 C13.7925009,15.2259994 13.9286662,15.0740009 14.03,14.884 C14.1313338,14.693999 14.182,14.4660013 14.182,14.2 C14.182,13.9466654 14.1186673,13.7313342 13.992,13.554 C13.8653327,13.3766658 13.6848345,13.2151674 13.4505,13.0695 C13.2161655,12.9238326 12.9248351,12.7908339 12.5765,12.6705 C12.2281649,12.5501661 11.8323355,12.420334 11.389,12.281 C10.9583312,12.141666 10.5371687,11.9770009 10.1255,11.787 C9.71383127,11.596999 9.34650161,11.3531682 9.0235,11.0555 C8.70049838,10.7578318 8.44083431,10.3968355 8.2445,9.9725 C8.04816568,9.54816454 7.95,9.03200304 7.95,8.424 C7.95,7.67666293 8.10199848,7.03700266 8.406,6.505 C8.71000152,5.97299734 9.10899753,5.53600171 9.603,5.194 C10.0970025,4.85199829 10.6543302,4.60183412 11.275,4.4435 C11.8956698,4.28516587 12.5226635,4.206 13.156,4.206 C13.9160038,4.206 14.6918294,4.34533194 15.4835,4.624 C16.2751706,4.90266806 16.9686637,5.31433061 17.564,5.859 L15.493,8.044 Z" fill="#000000"></path>
    </g>
</svg>
